images/services/services3.svg

<svg width="101" height="100" viewBox="0 0 101 100" fill="none" xmlns="http://www.w3.org/2000/svg">
<rect x="0.5" width="100" height="100" rx="50" fill="#EBEDEF"/>
<path d="M68.9688 30.4688C67.1797 30.4688 65.5 31.3594 64.4844 32.8125H62.7188V32.0312C62.7188 30.7422 61.6641 29.6875 60.375 29.6875C59.7813 29.6875 59.2266 29.9141 58.8125 30.2891C58.3985 29.9141 57.8438 29.6875 57.25 29.6875C56.6563 29.6875 56.1016 29.9141 55.6875 30.2891C55.2735 29.9141 54.7188 29.6875 54.125 29.6875C53.5313 29.6875 52.9766 29.9141 52.5625 30.2891C52.1485 29.9141 51.5938 29.6875 51 29.6875C49.711 29.6875 48.6563 30.7422 48.6563 32.0312V32.5703C47.9297 32.0391 47.086 31.8828 46.2969 32.1719C45.9297 32.3047 45.6094 32.5312 45.3516 32.8125H41.5703C41.1875 30.1641 38.9063 28.125 36.1563 28.125H33.0312C30.0156 28.125 27.5625 30.5781 27.5625 33.5938C27.5625 34.0234 27.9141 34.375 28.3437 34.375H35.375V37.5H28.3437C27.9141 37.5 27.5625 37.8516 27.5625 38.2812C27.5625 41.2969 30.0156 43.75 33.0312 43.75H36.1563C38.9063 43.75 41.1875 41.7109 41.5703 39.0625H44.75V39.8438C44.75 39.9688 44.7813 40.0859 44.836 40.1953L45.2969 41.1094L44.7344 40.5547C44.4297 40.25 43.9375 40.25 43.6328 40.5547L39.211 44.9688C38.9063 45.2812 38.9063 45.7734 39.211 46.0781L41.2422 48.1172C40.6172 49.2031 40.1406 50.3594 39.8125 51.5625H36.9375C36.5078 51.5625 36.1563 51.9141 36.1563 52.3438V56.25H33.9375C33.5078 56.25 33.1562 56.6016 33.1562 57.0312V58.5469C32.8984 58.6797 32.6406 58.8281 32.3906 58.9922L31.0781 58.2344C30.8984 58.125 30.6875 58.1016 30.4844 58.1562C30.2891 58.2031 30.1172 58.3359 30.0078 58.5156L27.6641 62.5781C27.4531 62.9531 27.5781 63.4297 27.9531 63.6406L29.2656 64.4062C29.2578 64.5547 29.25 64.7031 29.25 64.8438C29.25 64.9844 29.2578 65.1328 29.2656 65.2812L27.9531 66.0469C27.5781 66.2578 27.4531 66.7344 27.6641 67.1094L30.0078 71.1719C30.1172 71.3516 30.2891 71.4844 30.4844 71.5312C30.6875 71.5859 30.8984 71.5625 31.0781 71.4531L32.3906 70.6953C32.6406 70.8594 32.8984 71.0078 33.1562 71.1406V72.6562C33.1562 73.0859 33.5078 73.4375 33.9375 73.4375H38.625C39.0547 73.4375 39.4063 73.0859 39.4063 72.6562V71.1406C39.6719 71.0078 39.9219 70.8594 40.1719 70.6953L41.4844 71.4531C41.6641 71.5625 41.875 71.5859 42.0781 71.5312C42.2735 71.4844 42.4453 71.3516 42.5547 71.1719L43.2344 69.9844L43.6328 70.3828C43.9375 70.6875 44.4297 70.6875 44.7344 70.3828L46.7656 68.3516C47.8594 68.9688 49.0156 69.4531 50.2188 69.7812V72.6562C50.2188 73.0859 50.5703 73.4375 51 73.4375H57.25C57.6797 73.4375 58.0313 73.0859 58.0313 72.6562V69.7812C59.2344 69.4531 60.3906 68.9688 61.4844 68.3516L63.5156 70.3828C63.8203 70.6875 64.3125 70.6875 64.6172 70.3828L69.0391 65.9688C69.3438 65.6562 69.3438 65.1641 69.0391 64.8594L67.0078 62.8203C67.6328 61.7344 68.1094 60.5781 68.4375 59.375H71.3125C71.7422 59.375 72.0938 59.0234 72.0938 58.5938V52.3438C72.0938 51.9141 71.7422 51.5625 71.3125 51.5625H68.4375C68.1094 50.3594 67.6328 49.2031 67.0078 48.1172L69.0391 46.0781C69.3438 45.7734 69.3438 45.2812 69.0391 44.9688L64.6172 40.5547C64.3125 40.25 63.8203 40.25 63.5156 40.5547L62.711 41.3594C62.7188 41.2969 62.7188 41.2266 62.7188 41.1641V39.0625H64.4844C65.5 40.5156 67.1797 41.4062 68.9688 41.4062C71.9844 41.4062 74.4375 38.9531 74.4375 35.9375C74.4375 32.9219 71.9844 30.4688 68.9688 30.4688ZM68.9688 35.1562C69.3984 35.1562 69.75 35.5078 69.75 35.9375C69.75 36.3672 69.3984 36.7188 68.9688 36.7188C68.5391 36.7188 68.1875 36.3672 68.1875 35.9375C68.1875 35.5078 68.5391 35.1562 68.9688 35.1562ZM60.375 31.25C60.8047 31.25 61.1563 31.6016 61.1563 32.0312V37.5C61.1563 37.9297 60.8047 38.2812 60.375 38.2812C59.9453 38.2812 59.5938 37.9297 59.5938 37.5V32.0312C59.5938 31.6016 59.9453 31.25 60.375 31.25ZM57.25 31.25C57.6797 31.25 58.0313 31.6016 58.0313 32.0312V37.5C58.0313 37.9297 57.6797 38.2812 57.25 38.2812C56.8203 38.2812 56.4688 37.9297 56.4688 37.5V32.0312C56.4688 31.6016 56.8203 31.25 57.25 31.25ZM54.125 31.25C54.5547 31.25 54.9063 31.6016 54.9063 32.0312V37.5C54.9063 37.9297 54.5547 38.2812 54.125 38.2812C53.6953 38.2812 53.3438 37.9297 53.3438 37.5V32.0312C53.3438 31.6016 53.6953 31.25 54.125 31.25ZM50.2188 32.0312C50.2188 31.6016 50.5703 31.25 51 31.25C51.4297 31.25 51.7813 31.6016 51.7813 32.0312V37.5C51.7813 37.9297 51.4297 38.2812 51 38.2812C50.5703 38.2812 50.2188 37.9297 50.2188 37.5V35.7734V32.0312ZM46.3125 34.375C46.3125 34.0469 46.5235 33.75 46.8281 33.6406C47.2344 33.4922 47.7031 33.6953 48.1172 34.1953C48.461 34.6172 48.6563 35.1719 48.6563 35.7734V37.5V39.0625C48.6563 39.4922 49.0078 39.8438 49.4375 39.8438C51.1641 39.8438 52.5625 41.2422 52.5625 42.9688V46.0938C52.5625 46.5234 52.9141 46.875 53.3438 46.875C53.7735 46.875 54.125 46.5234 54.125 46.0938V42.9688C54.125 41.5156 53.461 40.2187 52.4219 39.3594C52.4688 39.3281 52.5156 39.2812 52.5625 39.2422C52.9766 39.6172 53.5313 39.8438 54.125 39.8438C54.7188 39.8438 55.2735 39.6172 55.6875 39.2422C56.1016 39.6172 56.6563 39.8438 57.25 39.8438C57.8438 39.8438 58.3985 39.6172 58.8125 39.2422C59.2266 39.6172 59.7813 39.8438 60.375 39.8438C60.6484 39.8438 60.9141 39.7969 61.1563 39.7031V41.1641C61.1563 42.625 60.5859 43.9922 59.5547 45.0234L59.0391 45.5391C58.8985 45.6875 58.8125 45.8828 58.8125 46.0938V61.7109C57.5078 62.6953 55.8828 63.2812 54.125 63.2812C52.3672 63.2812 50.7422 62.6953 49.4375 61.7109V49.4453V46.0938C49.4375 45.9688 49.4063 45.8516 49.3516 45.7422L46.3125 39.6562V34.375ZM48.1641 62.7031C48.1328 62.6797 48.1016 62.6562 48.0781 62.625C48.1016 62.6562 48.1328 62.6797 48.1641 62.7031ZM46.3125 55.4688C46.3125 53.7578 46.8672 52.125 47.875 50.7891V60.1484C46.8906 58.8438 46.3125 57.2266 46.3125 55.4688ZM60.1719 62.625C60.1485 62.6562 60.1172 62.6797 60.086 62.7031C60.1172 62.6797 60.1485 62.6562 60.1719 62.625ZM60.375 50.7891C61.3828 52.125 61.9375 53.7578 61.9375 55.4688C61.9375 57.2266 61.3594 58.8438 60.375 60.1484V50.7891ZM41.586 69.7109L40.5156 69.0938C40.2344 68.9297 39.8906 68.9531 39.6406 69.1484C39.2344 69.4688 38.7969 69.7266 38.336 69.9141C38.0391 70.0312 37.8438 70.3203 37.8438 70.6328V71.875H34.7188V70.6328C34.7188 70.3203 34.5235 70.0312 34.2344 69.9141C33.7656 69.7266 33.3281 69.4688 32.9219 69.1484C32.6719 68.9531 32.3281 68.9297 32.0469 69.0938L30.9766 69.7109L29.4141 67.0078L30.4922 66.3828C30.7656 66.2266 30.9141 65.9141 30.875 65.6016C30.8281 65.3047 30.8125 65.0703 30.8125 64.8438C30.8125 64.6172 30.8281 64.3828 30.875 64.0859C30.9141 63.7734 30.7656 63.4609 30.4922 63.3047L29.4141 62.6797L30.9766 59.9766L32.0469 60.5938C32.3281 60.7578 32.6719 60.7344 32.9219 60.5391C33.3281 60.2188 33.7656 59.9609 34.2344 59.7734C34.5235 59.6562 34.7188 59.3672 34.7188 59.0547V57.8125H36.1563V58.5938C36.1563 59.0234 36.5078 59.375 36.9375 59.375H39.8125C40.1406 60.5781 40.6172 61.7344 41.2422 62.8203L39.3985 64.6719C39.3125 63.0234 37.9531 61.7188 36.2813 61.7188C34.5547 61.7188 33.1562 63.1172 33.1562 64.8438C33.1562 66.5703 34.5547 67.9688 36.2813 67.9688C37.6172 67.9688 38.75 67.1328 39.1953 65.9531C39.2031 65.9609 39.2031 65.9609 39.211 65.9688L42.0938 68.8438L41.586 69.7109ZM37.8438 64.8438C37.8438 65.7031 37.1406 66.4062 36.2813 66.4062C35.4219 66.4062 34.7188 65.7031 34.7188 64.8438C34.7188 63.9844 35.4219 63.2812 36.2813 63.2812C37.1406 63.2812 37.8438 63.9844 37.8438 64.8438Z" fill="#F26600"/>
</svg>

<svg width="101" height="100" fill="none" xmlns="http://www.w3.org/2000/svg"><rect x=".5" width="100" height="100" rx="50" fill="#EBEDEF"/><path d="M68.969 30.469c-1.79 0-3.469.89-4.485 2.343H62.72v-.78a2.35 2.35 0 0 0-2.344-2.344c-.594 0-1.148.226-1.563.601a2.331 2.331 0 0 0-3.124 0 2.331 2.331 0 0 0-3.126 0A2.331 2.331 0 0 0 51 29.687a2.35 2.35 0 0 0-2.344 2.344v.54c-.726-.532-1.57-.688-2.36-.4-.366.134-.687.36-.944.642H41.57a5.479 5.479 0 0 0-5.414-4.688h-3.125a5.475 5.475 0 0 0-5.468 5.469c0 .43.351.781.78.781h7.032V37.5h-7.031a.784.784 0 0 0-.782.781 5.475 5.475 0 0 0 5.47 5.469h3.124c2.75 0 5.032-2.04 5.414-4.688h3.18v.782c0 .125.031.242.086.351l.46.914-.562-.554a.778.778 0 0 0-1.101 0l-4.422 4.414a.787.787 0 0 0 0 1.11l2.031 2.038a14.592 14.592 0 0 0-1.43 3.446h-2.874a.784.784 0 0 0-.782.78v3.907h-2.218a.784.784 0 0 0-.782.781v1.516a8.446 8.446 0 0 0-.765.445l-1.313-.758a.753.753 0 0 0-.594-.078.782.782 0 0 0-.476.36l-2.344 4.062a.778.778 0 0 0 .29 1.063l1.312.765c-.008.149-.016.297-.016.438 0 .14.008.289.016.437l-1.313.766a.778.778 0 0 0-.289 1.062l2.344 4.063c.11.18.281.312.476.36a.752.752 0 0 0 .594-.079l1.313-.758c.25.164.507.313.765.446v1.515c0 .43.352.781.782.781h4.687c.43 0 .781-.351.781-.78V71.14c.266-.133.516-.282.766-.446l1.312.758c.18.11.391.133.594.078a.782.782 0 0 0 .477-.36l.68-1.187.398.399a.778.778 0 0 0 1.101 0l2.032-2.031a15.128 15.128 0 0 0 3.453 1.43v2.874c0 .43.351.781.781.781h6.25c.43 0 .781-.351.781-.78V69.78a15.13 15.13 0 0 0 3.453-1.43l2.032 2.032a.778.778 0 0 0 1.101 0l4.422-4.414a.787.787 0 0 0 0-1.11l-2.031-2.039a14.592 14.592 0 0 0 1.43-3.445h2.874c.43 0 .782-.352.782-.781v-6.25a.784.784 0 0 0-.781-.782h-2.876a14.592 14.592 0 0 0-1.43-3.445l2.032-2.039a.787.787 0 0 0 0-1.11l-4.422-4.413a.778.778 0 0 0-1.101 0l-.805.804c.008-.062.008-.132.008-.195v-2.102h1.765a5.493 5.493 0 0 0 4.485 2.344 5.475 5.475 0 0 0 5.469-5.468 5.475 5.475 0 0 0-5.47-5.47Zm0 4.687c.43 0 .781.352.781.782 0 .43-.352.78-.781.78a.784.784 0 0 1-.781-.78c0-.43.351-.782.78-.782Zm-8.594-3.906c.43 0 .781.352.781.781V37.5c0 .43-.351.781-.781.781a.783.783 0 0 1-.781-.781v-5.469c0-.43.351-.781.781-.781Zm-3.125 0c.43 0 .781.352.781.781V37.5c0 .43-.351.781-.781.781a.783.783 0 0 1-.781-.781v-5.469c0-.43.351-.781.781-.781Zm-3.125 0c.43 0 .781.352.781.781V37.5c0 .43-.351.781-.781.781a.783.783 0 0 1-.781-.781v-5.469c0-.43.351-.781.781-.781Zm-3.906.781c0-.43.351-.781.781-.781.43 0 .781.352.781.781V37.5c0 .43-.351.781-.781.781a.783.783 0 0 1-.781-.781v-5.469Zm-3.907 2.344c0-.328.212-.625.516-.734.406-.149.875.054 1.29.554.343.422.538.977.538 1.578v3.29c0 .43.352.78.782.78a3.124 3.124 0 0 1 3.124 3.126v3.125c0 .43.352.781.782.781.43 0 .781-.352.781-.781v-3.125c0-1.453-.664-2.75-1.703-3.61.047-.03.094-.078.14-.117a2.332 2.332 0 0 0 3.126 0 2.332 2.332 0 0 0 3.124 0c.415.375.97.602 1.563.602.273 0 .54-.047.781-.14v1.46c0 1.461-.57 2.828-1.601 3.86l-.516.515a.807.807 0 0 0-.227.555V61.71a7.761 7.761 0 0 1-4.687 1.57 7.761 7.761 0 0 1-4.688-1.57V46.094a.779.779 0 0 0-.085-.352l-3.04-6.086v-5.281Zm1.852 28.328Zm-1.852-7.234a7.75 7.75 0 0 1 1.563-4.68v9.36a7.731 7.731 0 0 1-1.563-4.68Zm13.86 7.156Zm.203-11.836a7.75 7.75 0 0 1 1.563 4.68 7.731 7.731 0 0 1-1.563 4.68v-9.36ZM41.586 69.711l-1.07-.617a.778.778 0 0 0-.875.054c-.407.32-.844.579-1.305.766a.778.778 0 0 0-.492.719v1.242h-3.125v-1.242a.783.783 0 0 0-.485-.719 5.287 5.287 0 0 1-1.312-.766.778.778 0 0 0-.875-.054l-1.07.617-1.563-2.703 1.078-.625a.788.788 0 0 0 .383-.781 4.688 4.688 0 0 1 0-1.516.788.788 0 0 0-.383-.781l-1.078-.625 1.563-2.703 1.07.617c.281.164.625.14.875-.055a5.29 5.29 0 0 1 1.312-.766.783.783 0 0 0 .485-.718v-1.242h1.437v.78c0 .43.352.782.782.782h2.874c.329 1.203.805 2.36 1.43 3.445L39.4 64.672a3.124 3.124 0 1 0-3.117 3.297 3.11 3.11 0 0 0 2.913-2.016l.016.016 2.883 2.875-.508.867Zm-3.742-4.867c0 .86-.703 1.562-1.563 1.562s-1.562-.703-1.562-1.562c0-.86.703-1.563 1.562-1.563.86 0 1.563.703 1.563 1.563Z" fill="#F26600"/></svg>
